Settings/Archipelago - Longnecker LR/RyanLongnecker 01 C.xmp
<x:xmpmeta xmlns:x="adobe:ns:meta/" x:xmptk="Adobe XMP Core 5.6-c140 79.160451, 2017/05/06-01:08:21        ">
 <rdf:RDF xmlns:rdf="http://www.w3.org/1999/02/22-rdf-syntax-ns#">
  <rdf:Description rdf:about=""
    xmlns:crs="http://ns.adobe.com/camera-raw-settings/1.0/"
   crs:PresetType="Normal"
   crs:Cluster=""
   crs:UUID="6F5A5E3B645E4F6979ABA0FFCF771922"
   crs:SupportsAmount="False"
   crs:SupportsColor="True"
   crs:SupportsMonochrome="True"
   crs:SupportsHighDynamicRange="True"
   crs:SupportsNormalDynamicRange="True"
   crs:SupportsSceneReferred="True"
   crs:SupportsOutputReferred="True"
   crs:CameraModelRestriction=""
   crs:Copyright=""
   crs:ContactInfo=""
   crs:Version="10.3"
   crs:ProcessVersion="6.7"
   crs:WhiteBalance="As Shot"
   crs:Saturation="0"
   crs:Sharpness="25"
   crs:LuminanceSmoothing="0"
   crs:ColorNoiseReduction="25"
   crs:VignetteAmount="-20"
   crs:VignetteMidpoint="40"
   crs:ShadowTint="+12"
   crs:RedHue="+25"
   crs:RedSaturation="+12"
   crs:GreenHue="+40"
   crs:GreenSaturation="-25"
   crs:BlueHue="-15"
   crs:BlueSaturation="-10"
   crs:Vibrance="0"
   crs:HueAdjustmentRed="+5"
   crs:HueAdjustmentOrange="+12"
   crs:HueAdjustmentYellow="+12"
   crs:HueAdjustmentGreen="+15"
   crs:HueAdjustmentAqua="0"
   crs:HueAdjustmentBlue="-31"
   crs:HueAdjustmentPurple="+4"
   crs:HueAdjustmentMagenta="+25"
   crs:SaturationAdjustmentRed="-10"
   crs:SaturationAdjustmentOrange="0"
   crs:SaturationAdjustmentYellow="0"
   crs:SaturationAdjustmentGreen="-25"
   crs:SaturationAdjustmentAqua="-30"
   crs:SaturationAdjustmentBlue="-26"
   crs:SaturationAdjustmentPurple="-10"
   crs:SaturationAdjustmentMagenta="-20"
   crs:LuminanceAdjustmentRed="+8"
   crs:LuminanceAdjustmentOrange="+8"
   crs:LuminanceAdjustmentYellow="+11"
   crs:LuminanceAdjustmentGreen="+10"
   crs:LuminanceAdjustmentAqua="0"
   crs:LuminanceAdjustmentBlue="-6"
   crs:LuminanceAdjustmentPurple="-15"
   crs:LuminanceAdjustmentMagenta="0"
   crs:SplitToningShadowHue="0"
   crs:SplitToningShadowSaturation="0"
   crs:SplitToningHighlightHue="46"
   crs:SplitToningHighlightSaturation="8"
   crs:SplitToningBalance="0"
   crs:ParametricShadows="0"
   crs:ParametricDarks="0"
   crs:ParametricLights="0"
   crs:ParametricHighlights="0"
   crs:ParametricShadowSplit="14"
   crs:ParametricMidtoneSplit="60"
   crs:ParametricHighlightSplit="75"
   crs:SharpenRadius="+1.0"
   crs:SharpenDetail="25"
   crs:SharpenEdgeMasking="0"
   crs:PostCropVignetteAmount="0"
   crs:GrainAmount="15"
   crs:GrainSize="25"
   crs:GrainFrequency="50"
   crs:ColorNoiseReductionDetail="50"
   crs:ColorNoiseReductionSmoothness="50"
   crs:LensProfileEnable="1"
   crs:LensManualDistortionAmount="0"
   crs:PerspectiveVertical="0"
   crs:PerspectiveHorizontal="0"
   crs:PerspectiveRotate="0.0"
   crs:PerspectiveScale="100"
   crs:PerspectiveAspect="0"
   crs:PerspectiveUpright="0"
   crs:AutoLateralCA="0"
   crs:Exposure2012="0.00"
   crs:Contrast2012="0"
   crs:Highlights2012="-3"
   crs:Shadows2012="+45"
   crs:Whites2012="-15"
   crs:Blacks2012="0"
   crs:Clarity2012="0"
   crs:DefringePurpleAmount="0"
   crs:DefringePurpleHueLo="30"
   crs:DefringePurpleHueHi="70"
   crs:DefringeGreenAmount="0"
   crs:DefringeGreenHueLo="40"
   crs:DefringeGreenHueHi="60"
   crs:Dehaze="0"
   crs:ConvertToGrayscale="False"
   crs:OverrideLookVignette="False"
   crs:ToneCurveName2012="Custom"
   crs:CameraProfile="Adobe Standard"
   crs:LensProfileSetup="Auto"
   crs:HasSettings="True">
   <crs:Name>
    <rdf:Alt>
     <rdf:li xml:lang="x-default">RyanLongnecker 01 C-fixed</rdf:li>
    </rdf:Alt>
   </crs:Name>
   <crs:ShortName>
    <rdf:Alt>
     <rdf:li xml:lang="x-default"/>
    </rdf:Alt>
   </crs:ShortName>
   <crs:SortName>
    <rdf:Alt>
     <rdf:li xml:lang="x-default">RyanLongnecker 01 C-fixed</rdf:li>
    </rdf:Alt>
   </crs:SortName>
   <crs:Group>
    <rdf:Alt>
     <rdf:li xml:lang="x-default">Archipelago - Longnecker LR</rdf:li>
    </rdf:Alt>
   </crs:Group>
   <crs:Description>
    <rdf:Alt>
     <rdf:li xml:lang="x-default"/>
    </rdf:Alt>
   </crs:Description>
   <crs:ToneCurvePV2012>
    <rdf:Seq>
     <rdf:li>0, 16</rdf:li>
     <rdf:li>37, 45</rdf:li>
     <rdf:li>85, 89</rdf:li>
     <rdf:li>168, 169</rdf:li>
     <rdf:li>255, 249</rdf:li>
    </rdf:Seq>
   </crs:ToneCurvePV2012>
   <crs:ToneCurvePV2012Red>
    <rdf:Seq>
     <rdf:li>0, 0</rdf:li>
     <rdf:li>45, 19</rdf:li>
     <rdf:li>78, 60</rdf:li>
     <rdf:li>113, 123</rdf:li>
     <rdf:li>178, 203</rdf:li>
     <rdf:li>255, 255</rdf:li>
    </rdf:Seq>
   </crs:ToneCurvePV2012Red>
   <crs:ToneCurvePV2012Green>
    <rdf:Seq>
     <rdf:li>0, 0</rdf:li>
     <rdf:li>43, 22</rdf:li>
     <rdf:li>70, 53</rdf:li>
     <rdf:li>112, 122</rdf:li>
     <rdf:li>180, 202</rdf:li>
     <rdf:li>255, 255</rdf:li>
    </rdf:Seq>
   </crs:ToneCurvePV2012Green>
   <crs:ToneCurvePV2012Blue>
    <rdf:Seq>
     <rdf:li>0, 0</rdf:li>
     <rdf:li>43, 22</rdf:li>
     <rdf:li>113, 123</rdf:li>
     <rdf:li>178, 203</rdf:li>
     <rdf:li>255, 255</rdf:li>
    </rdf:Seq>
   </crs:ToneCurvePV2012Blue>
   <crs:Look
    crs:Name=""/>
  </rdf:Description>
 </rdf:RDF>
</x:xmpmeta>
