Settings/VSCO Film 02 LR4 Canon/C - Fuji Superia 800 +.xmp
<x:xmpmeta xmlns:x="adobe:ns:meta/" x:xmptk="Adobe XMP Core 5.6-c140 79.160451, 2017/05/06-01:08:21        ">
 <rdf:RDF xmlns:rdf="http://www.w3.org/1999/02/22-rdf-syntax-ns#">
  <rdf:Description rdf:about=""
    xmlns:crs="http://ns.adobe.com/camera-raw-settings/1.0/"
   crs:PresetType="Normal"
   crs:Cluster=""
   crs:UUID="167BCECE5354D60E8EF4832534AD5A67"
   crs:SupportsAmount="False"
   crs:SupportsColor="True"
   crs:SupportsMonochrome="True"
   crs:SupportsHighDynamicRange="True"
   crs:SupportsNormalDynamicRange="True"
   crs:SupportsSceneReferred="True"
   crs:SupportsOutputReferred="True"
   crs:CameraModelRestriction=""
   crs:Copyright=""
   crs:ContactInfo=""
   crs:Version="10.3"
   crs:ProcessVersion="6.7"
   crs:Saturation="-5"
   crs:Sharpness="25"
   crs:ShadowTint="0"
   crs:RedHue="+10"
   crs:RedSaturation="+10"
   crs:GreenHue="0"
   crs:GreenSaturation="0"
   crs:BlueHue="0"
   crs:BlueSaturation="0"
   crs:Vibrance="0"
   crs:HueAdjustmentRed="+30"
   crs:HueAdjustmentOrange="+2"
   crs:HueAdjustmentYellow="+10"
   crs:HueAdjustmentGreen="+15"
   crs:HueAdjustmentAqua="0"
   crs:HueAdjustmentBlue="+8"
   crs:HueAdjustmentPurple="+10"
   crs:HueAdjustmentMagenta="+20"
   crs:SaturationAdjustmentRed="-10"
   crs:SaturationAdjustmentOrange="-10"
   crs:SaturationAdjustmentYellow="0"
   crs:SaturationAdjustmentGreen="-30"
   crs:SaturationAdjustmentAqua="-35"
   crs:SaturationAdjustmentBlue="-20"
   crs:SaturationAdjustmentPurple="-30"
   crs:SaturationAdjustmentMagenta="-30"
   crs:LuminanceAdjustmentRed="-10"
   crs:LuminanceAdjustmentOrange="-5"
   crs:LuminanceAdjustmentYellow="+15"
   crs:LuminanceAdjustmentGreen="+25"
   crs:LuminanceAdjustmentAqua="+30"
   crs:LuminanceAdjustmentBlue="-20"
   crs:LuminanceAdjustmentPurple="-10"
   crs:LuminanceAdjustmentMagenta="0"
   crs:SplitToningShadowHue="0"
   crs:SplitToningShadowSaturation="0"
   crs:SplitToningHighlightHue="0"
   crs:SplitToningHighlightSaturation="0"
   crs:SplitToningBalance="0"
   crs:ParametricShadows="0"
   crs:ParametricDarks="0"
   crs:ParametricLights="0"
   crs:ParametricHighlights="0"
   crs:ParametricShadowSplit="25"
   crs:ParametricMidtoneSplit="50"
   crs:ParametricHighlightSplit="75"
   crs:SharpenRadius="+1.0"
   crs:SharpenDetail="25"
   crs:SharpenEdgeMasking="0"
   crs:GrainAmount="80"
   crs:GrainSize="20"
   crs:GrainFrequency="45"
   crs:Contrast2012="0"
   crs:Highlights2012="-10"
   crs:Shadows2012="+20"
   crs:Whites2012="-10"
   crs:Blacks2012="+25"
   crs:Clarity2012="0"
   crs:ConvertToGrayscale="False"
   crs:ToneCurveName2012="Custom"
   crs:CameraProfile="Fuji Superia 800 C"
   crs:HasSettings="True">
   <crs:Name>
    <rdf:Alt>
     <rdf:li xml:lang="x-default">C - Fuji Superia 800 +</rdf:li>
    </rdf:Alt>
   </crs:Name>
   <crs:ShortName>
    <rdf:Alt>
     <rdf:li xml:lang="x-default"/>
    </rdf:Alt>
   </crs:ShortName>
   <crs:SortName>
    <rdf:Alt>
     <rdf:li xml:lang="x-default">C - Fuji Superia 800 +</rdf:li>
    </rdf:Alt>
   </crs:SortName>
   <crs:Group>
    <rdf:Alt>
     <rdf:li xml:lang="x-default">VSCO Film 02 LR4 Canon</rdf:li>
    </rdf:Alt>
   </crs:Group>
   <crs:Description>
    <rdf:Alt>
     <rdf:li xml:lang="x-default"/>
    </rdf:Alt>
   </crs:Description>
   <crs:ToneCurvePV2012>
    <rdf:Seq>
     <rdf:li>0, 29</rdf:li>
     <rdf:li>53, 68</rdf:li>
     <rdf:li>126, 131</rdf:li>
     <rdf:li>255, 250</rdf:li>
    </rdf:Seq>
   </crs:ToneCurvePV2012>
   <crs:ToneCurvePV2012Red>
    <rdf:Seq>
     <rdf:li>0, 0</rdf:li>
     <rdf:li>21, 10</rdf:li>
     <rdf:li>72, 54</rdf:li>
     <rdf:li>118, 120</rdf:li>
     <rdf:li>179, 198</rdf:li>
     <rdf:li>255, 253</rdf:li>
    </rdf:Seq>
   </crs:ToneCurvePV2012Red>
   <crs:ToneCurvePV2012Green>
    <rdf:Seq>
     <rdf:li>0, 3</rdf:li>
     <rdf:li>65, 54</rdf:li>
     <rdf:li>117, 120</rdf:li>
     <rdf:li>183, 197</rdf:li>
     <rdf:li>255, 253</rdf:li>
    </rdf:Seq>
   </crs:ToneCurvePV2012Green>
   <crs:ToneCurvePV2012Blue>
    <rdf:Seq>
     <rdf:li>0, 4</rdf:li>
     <rdf:li>22, 19</rdf:li>
     <rdf:li>66, 56</rdf:li>
     <rdf:li>121, 121</rdf:li>
     <rdf:li>176, 189</rdf:li>
     <rdf:li>226, 231</rdf:li>
     <rdf:li>255, 253</rdf:li>
    </rdf:Seq>
   </crs:ToneCurvePV2012Blue>
   <crs:Look
    crs:Name=""/>
  </rdf:Description>
 </rdf:RDF>
</x:xmpmeta>
