Settings/Katch Wedding/03. Katch Wedding Indoor.xmp
<x:xmpmeta xmlns:x="adobe:ns:meta/" x:xmptk="Adobe XMP Core 5.6-c140 79.160451, 2017/05/06-01:08:21        ">
 <rdf:RDF xmlns:rdf="http://www.w3.org/1999/02/22-rdf-syntax-ns#">
  <rdf:Description rdf:about=""
    xmlns:crs="http://ns.adobe.com/camera-raw-settings/1.0/"
   crs:PresetType="Normal"
   crs:Cluster=""
   crs:UUID="3DE00602705D443CBA20DB0C1FBE2AB7"
   crs:SupportsAmount="False"
   crs:SupportsColor="True"
   crs:SupportsMonochrome="True"
   crs:SupportsHighDynamicRange="True"
   crs:SupportsNormalDynamicRange="True"
   crs:SupportsSceneReferred="True"
   crs:SupportsOutputReferred="True"
   crs:CameraModelRestriction=""
   crs:Copyright=""
   crs:ContactInfo=""
   crs:Version="10.3"
   crs:ProcessVersion="6.7"
   crs:Saturation="-10"
   crs:Sharpness="25"
   crs:LuminanceSmoothing="0"
   crs:ColorNoiseReduction="25"
   crs:VignetteAmount="0"
   crs:ShadowTint="-7"
   crs:RedHue="+16"
   crs:RedSaturation="+6"
   crs:GreenHue="+17"
   crs:GreenSaturation="0"
   crs:BlueHue="0"
   crs:BlueSaturation="+5"
   crs:Vibrance="0"
   crs:HueAdjustmentRed="0"
   crs:HueAdjustmentOrange="0"
   crs:HueAdjustmentYellow="+1"
   crs:HueAdjustmentGreen="+20"
   crs:HueAdjustmentAqua="-15"
   crs:HueAdjustmentBlue="-5"
   crs:HueAdjustmentPurple="+20"
   crs:HueAdjustmentMagenta="+30"
   crs:SaturationAdjustmentRed="-5"
   crs:SaturationAdjustmentOrange="-15"
   crs:SaturationAdjustmentYellow="-71"
   crs:SaturationAdjustmentGreen="-79"
   crs:SaturationAdjustmentAqua="-10"
   crs:SaturationAdjustmentBlue="-12"
   crs:SaturationAdjustmentPurple="-30"
   crs:SaturationAdjustmentMagenta="-10"
   crs:LuminanceAdjustmentRed="+10"
   crs:LuminanceAdjustmentOrange="+36"
   crs:LuminanceAdjustmentYellow="+5"
   crs:LuminanceAdjustmentGreen="-20"
   crs:LuminanceAdjustmentAqua="0"
   crs:LuminanceAdjustmentBlue="-10"
   crs:LuminanceAdjustmentPurple="-25"
   crs:LuminanceAdjustmentMagenta="0"
   crs:SplitToningShadowHue="65"
   crs:SplitToningShadowSaturation="12"
   crs:SplitToningHighlightHue="55"
   crs:SplitToningHighlightSaturation="0"
   crs:SplitToningBalance="+90"
   crs:ParametricShadows="0"
   crs:ParametricDarks="0"
   crs:ParametricLights="0"
   crs:ParametricHighlights="0"
   crs:ParametricShadowSplit="25"
   crs:ParametricMidtoneSplit="50"
   crs:ParametricHighlightSplit="75"
   crs:SharpenRadius="+1.0"
   crs:SharpenDetail="25"
   crs:SharpenEdgeMasking="0"
   crs:PostCropVignetteAmount="0"
   crs:GrainAmount="0"
   crs:ColorNoiseReductionDetail="50"
   crs:ColorNoiseReductionSmoothness="50"
   crs:LensProfileEnable="1"
   crs:LensManualDistortionAmount="0"
   crs:AutoLateralCA="1"
   crs:Contrast2012="-32"
   crs:Highlights2012="+19"
   crs:Shadows2012="-10"
   crs:Whites2012="-12"
   crs:Blacks2012="-26"
   crs:Clarity2012="0"
   crs:DefringePurpleAmount="0"
   crs:DefringePurpleHueLo="30"
   crs:DefringePurpleHueHi="70"
   crs:DefringeGreenAmount="0"
   crs:DefringeGreenHueLo="40"
   crs:DefringeGreenHueHi="60"
   crs:Dehaze="0"
   crs:ConvertToGrayscale="False"
   crs:OverrideLookVignette="False"
   crs:ToneCurveName2012="Custom"
   crs:CameraProfile="Adobe Standard"
   crs:LensProfileSetup="LensDefaults"
   crs:HasSettings="True">
   <crs:Name>
    <rdf:Alt>
     <rdf:li xml:lang="x-default">03. Katch Wedding Indoor</rdf:li>
    </rdf:Alt>
   </crs:Name>
   <crs:ShortName>
    <rdf:Alt>
     <rdf:li xml:lang="x-default"/>
    </rdf:Alt>
   </crs:ShortName>
   <crs:SortName>
    <rdf:Alt>
     <rdf:li xml:lang="x-default"/>
    </rdf:Alt>
   </crs:SortName>
   <crs:Group>
    <rdf:Alt>
     <rdf:li xml:lang="x-default">Katch Wedding</rdf:li>
    </rdf:Alt>
   </crs:Group>
   <crs:Description>
    <rdf:Alt>
     <rdf:li xml:lang="x-default"/>
    </rdf:Alt>
   </crs:Description>
   <crs:ToneCurvePV2012>
    <rdf:Seq>
     <rdf:li>0, 0</rdf:li>
     <rdf:li>46, 51</rdf:li>
     <rdf:li>75, 90</rdf:li>
     <rdf:li>164, 187</rdf:li>
     <rdf:li>252, 248</rdf:li>
    </rdf:Seq>
   </crs:ToneCurvePV2012>
   <crs:ToneCurvePV2012Red>
    <rdf:Seq>
     <rdf:li>0, 0</rdf:li>
     <rdf:li>36, 26</rdf:li>
     <rdf:li>123, 126</rdf:li>
     <rdf:li>255, 255</rdf:li>
    </rdf:Seq>
   </crs:ToneCurvePV2012Red>
   <crs:ToneCurvePV2012Green>
    <rdf:Seq>
     <rdf:li>0, 0</rdf:li>
     <rdf:li>36, 26</rdf:li>
     <rdf:li>121, 127</rdf:li>
     <rdf:li>255, 255</rdf:li>
    </rdf:Seq>
   </crs:ToneCurvePV2012Green>
   <crs:ToneCurvePV2012Blue>
    <rdf:Seq>
     <rdf:li>0, 0</rdf:li>
     <rdf:li>30, 19</rdf:li>
     <rdf:li>115, 120</rdf:li>
     <rdf:li>255, 250</rdf:li>
    </rdf:Seq>
   </crs:ToneCurvePV2012Blue>
   <crs:Look
    crs:Name=""/>
  </rdf:Description>
 </rdf:RDF>
</x:xmpmeta>
