Settings/Heck Yeah Film Pack/Heck Yeah Film 2.xmp
<x:xmpmeta xmlns:x="adobe:ns:meta/" x:xmptk="Adobe XMP Core 5.6-c140 79.160451, 2017/05/06-01:08:21        ">
 <rdf:RDF xmlns:rdf="http://www.w3.org/1999/02/22-rdf-syntax-ns#">
  <rdf:Description rdf:about=""
    xmlns:crs="http://ns.adobe.com/camera-raw-settings/1.0/"
   crs:PresetType="Normal"
   crs:Cluster=""
   crs:UUID="8FFF49B4D5C0A6F22E99F0A9834D8CDB"
   crs:SupportsAmount="False"
   crs:SupportsColor="True"
   crs:SupportsMonochrome="True"
   crs:SupportsHighDynamicRange="True"
   crs:SupportsNormalDynamicRange="True"
   crs:SupportsSceneReferred="True"
   crs:SupportsOutputReferred="True"
   crs:CameraModelRestriction=""
   crs:Copyright=""
   crs:ContactInfo=""
   crs:Version="10.3"
   crs:ProcessVersion="6.7"
   crs:Saturation="-24"
   crs:Sharpness="25"
   crs:VignetteAmount="0"
   crs:ShadowTint="-3"
   crs:RedHue="+23"
   crs:RedSaturation="+47"
   crs:GreenHue="+39"
   crs:GreenSaturation="-8"
   crs:BlueHue="-4"
   crs:BlueSaturation="-2"
   crs:Vibrance="-14"
   crs:HueAdjustmentRed="+7"
   crs:HueAdjustmentOrange="+3"
   crs:HueAdjustmentYellow="-1"
   crs:HueAdjustmentGreen="+2"
   crs:HueAdjustmentAqua="+8"
   crs:HueAdjustmentBlue="0"
   crs:HueAdjustmentPurple="+15"
   crs:HueAdjustmentMagenta="+13"
   crs:SaturationAdjustmentRed="-6"
   crs:SaturationAdjustmentOrange="0"
   crs:SaturationAdjustmentYellow="-21"
   crs:SaturationAdjustmentGreen="-52"
   crs:SaturationAdjustmentAqua="-41"
   crs:SaturationAdjustmentBlue="-23"
   crs:SaturationAdjustmentPurple="-22"
   crs:SaturationAdjustmentMagenta="-14"
   crs:LuminanceAdjustmentRed="+1"
   crs:LuminanceAdjustmentOrange="+3"
   crs:LuminanceAdjustmentYellow="+3"
   crs:LuminanceAdjustmentGreen="-2"
   crs:LuminanceAdjustmentAqua="-24"
   crs:LuminanceAdjustmentBlue="-33"
   crs:LuminanceAdjustmentPurple="+1"
   crs:LuminanceAdjustmentMagenta="+1"
   crs:SplitToningShadowHue="189"
   crs:SplitToningShadowSaturation="9"
   crs:SplitToningHighlightHue="50"
   crs:SplitToningHighlightSaturation="5"
   crs:SplitToningBalance="0"
   crs:ParametricShadows="-5"
   crs:ParametricDarks="-10"
   crs:ParametricLights="+10"
   crs:ParametricHighlights="0"
   crs:ParametricShadowSplit="25"
   crs:ParametricMidtoneSplit="50"
   crs:ParametricHighlightSplit="75"
   crs:SharpenRadius="+1.0"
   crs:SharpenDetail="25"
   crs:SharpenEdgeMasking="0"
   crs:LensProfileEnable="1"
   crs:LensManualDistortionAmount="0"
   crs:AutoLateralCA="0"
   crs:Contrast2012="+35"
   crs:Highlights2012="-1"
   crs:Shadows2012="-63"
   crs:Whites2012="+5"
   crs:Blacks2012="-39"
   crs:Clarity2012="0"
   crs:DefringePurpleAmount="0"
   crs:DefringePurpleHueLo="30"
   crs:DefringePurpleHueHi="70"
   crs:DefringeGreenAmount="0"
   crs:DefringeGreenHueLo="40"
   crs:DefringeGreenHueHi="60"
   crs:ConvertToGrayscale="False"
   crs:ToneCurveName2012="Custom"
   crs:CameraProfile="Adobe Standard"
   crs:LensProfileSetup="LensDefaults"
   crs:HasSettings="True">
   <crs:Name>
    <rdf:Alt>
     <rdf:li xml:lang="x-default">Heck Yeah Film 2</rdf:li>
    </rdf:Alt>
   </crs:Name>
   <crs:ShortName>
    <rdf:Alt>
     <rdf:li xml:lang="x-default"/>
    </rdf:Alt>
   </crs:ShortName>
   <crs:SortName>
    <rdf:Alt>
     <rdf:li xml:lang="x-default">Heck Yeah Film 2</rdf:li>
    </rdf:Alt>
   </crs:SortName>
   <crs:Group>
    <rdf:Alt>
     <rdf:li xml:lang="x-default">Heck Yeah Film Pack</rdf:li>
    </rdf:Alt>
   </crs:Group>
   <crs:Description>
    <rdf:Alt>
     <rdf:li xml:lang="x-default"/>
    </rdf:Alt>
   </crs:Description>
   <crs:ToneCurvePV2012>
    <rdf:Seq>
     <rdf:li>0, 30</rdf:li>
     <rdf:li>34, 50</rdf:li>
     <rdf:li>69, 77</rdf:li>
     <rdf:li>136, 136</rdf:li>
     <rdf:li>187, 178</rdf:li>
     <rdf:li>255, 224</rdf:li>
    </rdf:Seq>
   </crs:ToneCurvePV2012>
   <crs:ToneCurvePV2012Red>
    <rdf:Seq>
     <rdf:li>0, 0</rdf:li>
     <rdf:li>255, 255</rdf:li>
    </rdf:Seq>
   </crs:ToneCurvePV2012Red>
   <crs:ToneCurvePV2012Green>
    <rdf:Seq>
     <rdf:li>4, 0</rdf:li>
     <rdf:li>255, 255</rdf:li>
    </rdf:Seq>
   </crs:ToneCurvePV2012Green>
   <crs:ToneCurvePV2012Blue>
    <rdf:Seq>
     <rdf:li>0, 0</rdf:li>
     <rdf:li>255, 255</rdf:li>
    </rdf:Seq>
   </crs:ToneCurvePV2012Blue>
   <crs:Look
    crs:Name=""/>
  </rdf:Description>
 </rdf:RDF>
</x:xmpmeta>
