Settings/User Presets/KK +green.xmp
<x:xmpmeta xmlns:x="adobe:ns:meta/" x:xmptk="Adobe XMP Core 5.6-c140 79.160451, 2017/05/06-01:08:21        ">
 <rdf:RDF xmlns:rdf="http://www.w3.org/1999/02/22-rdf-syntax-ns#">
  <rdf:Description rdf:about=""
    xmlns:crs="http://ns.adobe.com/camera-raw-settings/1.0/"
   crs:PresetType="Normal"
   crs:Cluster=""
   crs:UUID="84838014BFFD687EB13C1EA96093A67A"
   crs:SupportsAmount="False"
   crs:SupportsColor="True"
   crs:SupportsMonochrome="True"
   crs:SupportsHighDynamicRange="True"
   crs:SupportsNormalDynamicRange="True"
   crs:SupportsSceneReferred="True"
   crs:SupportsOutputReferred="True"
   crs:CameraModelRestriction=""
   crs:Copyright=""
   crs:ContactInfo=""
   crs:Version="10.3"
   crs:WhiteBalance="Custom"
   crs:Temperature="6746"
   crs:Tint="+20"
   crs:Saturation="+5"
   crs:Sharpness="40"
   crs:LuminanceSmoothing="0"
   crs:ColorNoiseReduction="25"
   crs:VignetteAmount="0"
   crs:Vibrance="0"
   crs:HueAdjustmentRed="+9"
   crs:HueAdjustmentOrange="+8"
   crs:HueAdjustmentYellow="0"
   crs:HueAdjustmentGreen="-35"
   crs:HueAdjustmentAqua="+15"
   crs:HueAdjustmentBlue="-18"
   crs:HueAdjustmentPurple="0"
   crs:HueAdjustmentMagenta="+29"
   crs:SaturationAdjustmentRed="-9"
   crs:SaturationAdjustmentOrange="-28"
   crs:SaturationAdjustmentYellow="-46"
   crs:SaturationAdjustmentGreen="-30"
   crs:SaturationAdjustmentAqua="-100"
   crs:SaturationAdjustmentBlue="-10"
   crs:SaturationAdjustmentPurple="-25"
   crs:SaturationAdjustmentMagenta="-20"
   crs:LuminanceAdjustmentRed="0"
   crs:LuminanceAdjustmentOrange="+14"
   crs:LuminanceAdjustmentYellow="-15"
   crs:LuminanceAdjustmentGreen="-6"
   crs:LuminanceAdjustmentAqua="+20"
   crs:LuminanceAdjustmentBlue="-4"
   crs:LuminanceAdjustmentPurple="+15"
   crs:LuminanceAdjustmentMagenta="-7"
   crs:ParametricShadows="+3"
   crs:ParametricDarks="-8"
   crs:ParametricLights="-9"
   crs:ParametricHighlights="-38"
   crs:ParametricShadowSplit="25"
   crs:ParametricMidtoneSplit="50"
   crs:ParametricHighlightSplit="75"
   crs:SharpenRadius="+1.0"
   crs:SharpenDetail="25"
   crs:SharpenEdgeMasking="0"
   crs:ColorNoiseReductionDetail="50"
   crs:ColorNoiseReductionSmoothness="50"
   crs:LensProfileEnable="0"
   crs:LensManualDistortionAmount="0"
   crs:AutoLateralCA="0"
   crs:Exposure2012="-2.00"
   crs:Contrast2012="+39"
   crs:Highlights2012="-77"
   crs:Shadows2012="+80"
   crs:Whites2012="+44"
   crs:Blacks2012="+25"
   crs:Clarity2012="+5"
   crs:DefringePurpleAmount="0"
   crs:DefringePurpleHueLo="30"
   crs:DefringePurpleHueHi="70"
   crs:DefringeGreenAmount="0"
   crs:DefringeGreenHueLo="40"
   crs:DefringeGreenHueHi="60"
   crs:Dehaze="0"
   crs:ConvertToGrayscale="False"
   crs:ToneCurveName2012="Custom"
   crs:CameraProfile="Adobe Standard"
   crs:HasSettings="True">
   <crs:Name>
    <rdf:Alt>
     <rdf:li xml:lang="x-default">KK +green</rdf:li>
    </rdf:Alt>
   </crs:Name>
   <crs:ShortName>
    <rdf:Alt>
     <rdf:li xml:lang="x-default"/>
    </rdf:Alt>
   </crs:ShortName>
   <crs:SortName>
    <rdf:Alt>
     <rdf:li xml:lang="x-default"/>
    </rdf:Alt>
   </crs:SortName>
   <crs:Group>
    <rdf:Alt>
     <rdf:li xml:lang="x-default">User Presets</rdf:li>
    </rdf:Alt>
   </crs:Group>
   <crs:Description>
    <rdf:Alt>
     <rdf:li xml:lang="x-default"/>
    </rdf:Alt>
   </crs:Description>
   <crs:ToneCurvePV2012>
    <rdf:Seq>
     <rdf:li>0, 4</rdf:li>
     <rdf:li>31, 34</rdf:li>
     <rdf:li>79, 92</rdf:li>
     <rdf:li>121, 125</rdf:li>
     <rdf:li>255, 252</rdf:li>
    </rdf:Seq>
   </crs:ToneCurvePV2012>
   <crs:ToneCurvePV2012Red>
    <rdf:Seq>
     <rdf:li>0, 0</rdf:li>
     <rdf:li>46, 25</rdf:li>
     <rdf:li>111, 122</rdf:li>
     <rdf:li>183, 195</rdf:li>
     <rdf:li>242, 255</rdf:li>
    </rdf:Seq>
   </crs:ToneCurvePV2012Red>
   <crs:ToneCurvePV2012Green>
    <rdf:Seq>
     <rdf:li>0, 0</rdf:li>
     <rdf:li>33, 19</rdf:li>
     <rdf:li>109, 120</rdf:li>
     <rdf:li>185, 196</rdf:li>
     <rdf:li>255, 255</rdf:li>
    </rdf:Seq>
   </crs:ToneCurvePV2012Green>
   <crs:ToneCurvePV2012Blue>
    <rdf:Seq>
     <rdf:li>0, 0</rdf:li>
     <rdf:li>36, 17</rdf:li>
     <rdf:li>109, 120</rdf:li>
     <rdf:li>183, 194</rdf:li>
     <rdf:li>255, 255</rdf:li>
    </rdf:Seq>
   </crs:ToneCurvePV2012Blue>
   <crs:Look
    crs:Name=""/>
  </rdf:Description>
 </rdf:RDF>
</x:xmpmeta>
