Settings/DVLOP - PALETTES/PALETTE - Gabe.xmp
<x:xmpmeta xmlns:x="adobe:ns:meta/" x:xmptk="Adobe XMP Core 5.6-c140 79.160451, 2017/05/06-01:08:21        ">
 <rdf:RDF xmlns:rdf="http://www.w3.org/1999/02/22-rdf-syntax-ns#">
  <rdf:Description rdf:about=""
    xmlns:crs="http://ns.adobe.com/camera-raw-settings/1.0/"
   crs:PresetType="Normal"
   crs:Cluster=""
   crs:UUID="2E008AC024810B628E2896A15DDCD5FE"
   crs:SupportsAmount="False"
   crs:SupportsColor="True"
   crs:SupportsMonochrome="True"
   crs:SupportsHighDynamicRange="True"
   crs:SupportsNormalDynamicRange="True"
   crs:SupportsSceneReferred="True"
   crs:SupportsOutputReferred="True"
   crs:CameraModelRestriction=""
   crs:Copyright=""
   crs:ContactInfo=""
   crs:Version="10.3"
   crs:ProcessVersion="10.0"
   crs:Saturation="0"
   crs:ShadowTint="0"
   crs:RedHue="0"
   crs:RedSaturation="+2"
   crs:GreenHue="+15"
   crs:GreenSaturation="+6"
   crs:BlueHue="-23"
   crs:BlueSaturation="-10"
   crs:Vibrance="0"
   crs:HueAdjustmentRed="0"
   crs:HueAdjustmentOrange="+9"
   crs:HueAdjustmentYellow="-23"
   crs:HueAdjustmentGreen="0"
   crs:HueAdjustmentAqua="0"
   crs:HueAdjustmentBlue="-19"
   crs:HueAdjustmentPurple="0"
   crs:HueAdjustmentMagenta="0"
   crs:SaturationAdjustmentRed="-16"
   crs:SaturationAdjustmentOrange="-21"
   crs:SaturationAdjustmentYellow="-21"
   crs:SaturationAdjustmentGreen="-38"
   crs:SaturationAdjustmentAqua="0"
   crs:SaturationAdjustmentBlue="-40"
   crs:SaturationAdjustmentPurple="-16"
   crs:SaturationAdjustmentMagenta="-11"
   crs:LuminanceAdjustmentRed="+16"
   crs:LuminanceAdjustmentOrange="+27"
   crs:LuminanceAdjustmentYellow="+6"
   crs:LuminanceAdjustmentGreen="-34"
   crs:LuminanceAdjustmentAqua="0"
   crs:LuminanceAdjustmentBlue="-34"
   crs:LuminanceAdjustmentPurple="-2"
   crs:LuminanceAdjustmentMagenta="-6"
   crs:SplitToningShadowHue="0"
   crs:SplitToningShadowSaturation="0"
   crs:SplitToningHighlightHue="0"
   crs:SplitToningHighlightSaturation="0"
   crs:SplitToningBalance="0"
   crs:ConvertToGrayscale="False"
   crs:CameraProfile="DVLOP V2"
   crs:HasSettings="True">
   <crs:Name>
    <rdf:Alt>
     <rdf:li xml:lang="x-default">PALETTE - Gabe</rdf:li>
    </rdf:Alt>
   </crs:Name>
   <crs:ShortName>
    <rdf:Alt>
     <rdf:li xml:lang="x-default"/>
    </rdf:Alt>
   </crs:ShortName>
   <crs:SortName>
    <rdf:Alt>
     <rdf:li xml:lang="x-default">PALETTE - GABE</rdf:li>
    </rdf:Alt>
   </crs:SortName>
   <crs:Group>
    <rdf:Alt>
     <rdf:li xml:lang="x-default">DVLOP - PALETTES</rdf:li>
    </rdf:Alt>
   </crs:Group>
   <crs:Description>
    <rdf:Alt>
     <rdf:li xml:lang="x-default"/>
    </rdf:Alt>
   </crs:Description>
   <crs:Look
    crs:Name=""/>
  </rdf:Description>
 </rdf:RDF>
</x:xmpmeta>
