Settings/VSCO Film 02 LR4 Fuji/F - Kodak Portra 160 VC -.xmp
<x:xmpmeta xmlns:x="adobe:ns:meta/" x:xmptk="Adobe XMP Core 5.6-c140 79.160451, 2017/05/06-01:08:21        ">
 <rdf:RDF xmlns:rdf="http://www.w3.org/1999/02/22-rdf-syntax-ns#">
  <rdf:Description rdf:about=""
    xmlns:crs="http://ns.adobe.com/camera-raw-settings/1.0/"
   crs:PresetType="Normal"
   crs:Cluster=""
   crs:UUID="DFF03BD3734C9F8382BCE402F67EECF9"
   crs:SupportsAmount="False"
   crs:SupportsColor="True"
   crs:SupportsMonochrome="True"
   crs:SupportsHighDynamicRange="True"
   crs:SupportsNormalDynamicRange="True"
   crs:SupportsSceneReferred="True"
   crs:SupportsOutputReferred="True"
   crs:CameraModelRestriction=""
   crs:Copyright=""
   crs:ContactInfo=""
   crs:Version="10.3"
   crs:ProcessVersion="6.7"
   crs:Saturation="0"
   crs:Sharpness="25"
   crs:ShadowTint="0"
   crs:RedHue="+5"
   crs:RedSaturation="+5"
   crs:GreenHue="0"
   crs:GreenSaturation="0"
   crs:BlueHue="-10"
   crs:BlueSaturation="-5"
   crs:Vibrance="0"
   crs:HueAdjustmentRed="+25"
   crs:HueAdjustmentOrange="+5"
   crs:HueAdjustmentYellow="+15"
   crs:HueAdjustmentGreen="+15"
   crs:HueAdjustmentAqua="+10"
   crs:HueAdjustmentBlue="-5"
   crs:HueAdjustmentPurple="-10"
   crs:HueAdjustmentMagenta="+30"
   crs:SaturationAdjustmentRed="-5"
   crs:SaturationAdjustmentOrange="-8"
   crs:SaturationAdjustmentYellow="-30"
   crs:SaturationAdjustmentGreen="-45"
   crs:SaturationAdjustmentAqua="-10"
   crs:SaturationAdjustmentBlue="-35"
   crs:SaturationAdjustmentPurple="-35"
   crs:SaturationAdjustmentMagenta="-35"
   crs:LuminanceAdjustmentRed="-15"
   crs:LuminanceAdjustmentOrange="0"
   crs:LuminanceAdjustmentYellow="0"
   crs:LuminanceAdjustmentGreen="0"
   crs:LuminanceAdjustmentAqua="+5"
   crs:LuminanceAdjustmentBlue="+5"
   crs:LuminanceAdjustmentPurple="+10"
   crs:LuminanceAdjustmentMagenta="+5"
   crs:SplitToningShadowHue="0"
   crs:SplitToningShadowSaturation="0"
   crs:SplitToningHighlightHue="0"
   crs:SplitToningHighlightSaturation="0"
   crs:SplitToningBalance="0"
   crs:ParametricShadows="0"
   crs:ParametricDarks="0"
   crs:ParametricLights="0"
   crs:ParametricHighlights="0"
   crs:ParametricShadowSplit="14"
   crs:ParametricMidtoneSplit="60"
   crs:ParametricHighlightSplit="75"
   crs:SharpenRadius="+1.0"
   crs:SharpenDetail="25"
   crs:SharpenEdgeMasking="0"
   crs:GrainAmount="0"
   crs:Contrast2012="0"
   crs:Highlights2012="-10"
   crs:Shadows2012="+25"
   crs:Whites2012="-10"
   crs:Blacks2012="+25"
   crs:Clarity2012="0"
   crs:ConvertToGrayscale="False"
   crs:ToneCurveName2012="Custom"
   crs:CameraProfile="Kodak Portra 160 VC F"
   crs:HasSettings="True">
   <crs:Name>
    <rdf:Alt>
     <rdf:li xml:lang="x-default">F - Kodak Portra 160 VC -</rdf:li>
    </rdf:Alt>
   </crs:Name>
   <crs:ShortName>
    <rdf:Alt>
     <rdf:li xml:lang="x-default"/>
    </rdf:Alt>
   </crs:ShortName>
   <crs:SortName>
    <rdf:Alt>
     <rdf:li xml:lang="x-default">F - Kodak Portra 160 VC -</rdf:li>
    </rdf:Alt>
   </crs:SortName>
   <crs:Group>
    <rdf:Alt>
     <rdf:li xml:lang="x-default">VSCO Film 02 LR4 Fuji</rdf:li>
    </rdf:Alt>
   </crs:Group>
   <crs:Description>
    <rdf:Alt>
     <rdf:li xml:lang="x-default"/>
    </rdf:Alt>
   </crs:Description>
   <crs:ToneCurvePV2012>
    <rdf:Seq>
     <rdf:li>0, 0</rdf:li>
     <rdf:li>43, 55</rdf:li>
     <rdf:li>127, 130</rdf:li>
     <rdf:li>187, 185</rdf:li>
     <rdf:li>255, 255</rdf:li>
    </rdf:Seq>
   </crs:ToneCurvePV2012>
   <crs:ToneCurvePV2012Red>
    <rdf:Seq>
     <rdf:li>0, 0</rdf:li>
     <rdf:li>40, 23</rdf:li>
     <rdf:li>120, 123</rdf:li>
     <rdf:li>183, 197</rdf:li>
     <rdf:li>255, 255</rdf:li>
    </rdf:Seq>
   </crs:ToneCurvePV2012Red>
   <crs:ToneCurvePV2012Green>
    <rdf:Seq>
     <rdf:li>0, 0</rdf:li>
     <rdf:li>36, 23</rdf:li>
     <rdf:li>120, 123</rdf:li>
     <rdf:li>184, 195</rdf:li>
     <rdf:li>255, 255</rdf:li>
    </rdf:Seq>
   </crs:ToneCurvePV2012Green>
   <crs:ToneCurvePV2012Blue>
    <rdf:Seq>
     <rdf:li>0, 0</rdf:li>
     <rdf:li>36, 27</rdf:li>
     <rdf:li>120, 123</rdf:li>
     <rdf:li>184, 196</rdf:li>
     <rdf:li>255, 255</rdf:li>
    </rdf:Seq>
   </crs:ToneCurvePV2012Blue>
   <crs:Look
    crs:Name=""/>
  </rdf:Description>
 </rdf:RDF>
</x:xmpmeta>
