Settings/HTCH Presets/HTCH 03-1.xmp
<x:xmpmeta xmlns:x="adobe:ns:meta/" x:xmptk="Adobe XMP Core 5.6-c140 79.160451, 2017/05/06-01:08:21        ">
 <rdf:RDF xmlns:rdf="http://www.w3.org/1999/02/22-rdf-syntax-ns#">
  <rdf:Description rdf:about=""
    xmlns:crs="http://ns.adobe.com/camera-raw-settings/1.0/"
   crs:PresetType="Normal"
   crs:Cluster=""
   crs:UUID="92266745DF8241DB08F1ACA8E49D4BA4"
   crs:SupportsAmount="False"
   crs:SupportsColor="True"
   crs:SupportsMonochrome="True"
   crs:SupportsHighDynamicRange="True"
   crs:SupportsNormalDynamicRange="True"
   crs:SupportsSceneReferred="True"
   crs:SupportsOutputReferred="True"
   crs:CameraModelRestriction=""
   crs:Copyright=""
   crs:ContactInfo=""
   crs:Version="10.3"
   crs:ProcessVersion="6.7"
   crs:WhiteBalance="Custom"
   crs:Temperature="7172"
   crs:Tint="-5"
   crs:Saturation="-31"
   crs:Sharpness="139"
   crs:LuminanceSmoothing="28"
   crs:ColorNoiseReduction="25"
   crs:ShadowTint="0"
   crs:RedHue="+46"
   crs:RedSaturation="+5"
   crs:GreenHue="+50"
   crs:GreenSaturation="-25"
   crs:BlueHue="-10"
   crs:BlueSaturation="-10"
   crs:Vibrance="+17"
   crs:HueAdjustmentRed="-10"
   crs:HueAdjustmentOrange="-16"
   crs:HueAdjustmentYellow="-13"
   crs:HueAdjustmentGreen="-11"
   crs:HueAdjustmentAqua="0"
   crs:HueAdjustmentBlue="-10"
   crs:HueAdjustmentPurple="0"
   crs:HueAdjustmentMagenta="0"
   crs:SaturationAdjustmentRed="-8"
   crs:SaturationAdjustmentOrange="-4"
   crs:SaturationAdjustmentYellow="+6"
   crs:SaturationAdjustmentGreen="-35"
   crs:SaturationAdjustmentAqua="-20"
   crs:SaturationAdjustmentBlue="-22"
   crs:SaturationAdjustmentPurple="0"
   crs:SaturationAdjustmentMagenta="0"
   crs:LuminanceAdjustmentRed="-15"
   crs:LuminanceAdjustmentOrange="-6"
   crs:LuminanceAdjustmentYellow="+32"
   crs:LuminanceAdjustmentGreen="-55"
   crs:LuminanceAdjustmentAqua="0"
   crs:LuminanceAdjustmentBlue="+16"
   crs:LuminanceAdjustmentPurple="0"
   crs:LuminanceAdjustmentMagenta="0"
   crs:SplitToningShadowHue="34"
   crs:SplitToningShadowSaturation="16"
   crs:SplitToningHighlightHue="34"
   crs:SplitToningHighlightSaturation="0"
   crs:SplitToningBalance="0"
   crs:ParametricShadows="0"
   crs:ParametricDarks="0"
   crs:ParametricLights="0"
   crs:ParametricHighlights="0"
   crs:ParametricShadowSplit="25"
   crs:ParametricMidtoneSplit="50"
   crs:ParametricHighlightSplit="75"
   crs:SharpenRadius="+1.0"
   crs:SharpenDetail="25"
   crs:SharpenEdgeMasking="0"
   crs:PostCropVignetteAmount="0"
   crs:GrainAmount="25"
   crs:GrainSize="45"
   crs:GrainFrequency="50"
   crs:LuminanceNoiseReductionDetail="50"
   crs:ColorNoiseReductionDetail="50"
   crs:LuminanceNoiseReductionContrast="0"
   crs:ColorNoiseReductionSmoothness="50"
   crs:Exposure2012="+0.15"
   crs:Contrast2012="+39"
   crs:Highlights2012="-5"
   crs:Shadows2012="+27"
   crs:Whites2012="+30"
   crs:Blacks2012="+48"
   crs:Clarity2012="-11"
   crs:Dehaze="0"
   crs:ConvertToGrayscale="False"
   crs:OverrideLookVignette="False"
   crs:ToneCurveName2012="Custom"
   crs:CameraProfile="Adobe Standard"
   crs:HasSettings="True">
   <crs:Name>
    <rdf:Alt>
     <rdf:li xml:lang="x-default">HTCH 03</rdf:li>
    </rdf:Alt>
   </crs:Name>
   <crs:ShortName>
    <rdf:Alt>
     <rdf:li xml:lang="x-default"/>
    </rdf:Alt>
   </crs:ShortName>
   <crs:SortName>
    <rdf:Alt>
     <rdf:li xml:lang="x-default">HTCH 03</rdf:li>
    </rdf:Alt>
   </crs:SortName>
   <crs:Group>
    <rdf:Alt>
     <rdf:li xml:lang="x-default">HTCH Presets</rdf:li>
    </rdf:Alt>
   </crs:Group>
   <crs:Description>
    <rdf:Alt>
     <rdf:li xml:lang="x-default"/>
    </rdf:Alt>
   </crs:Description>
   <crs:ToneCurvePV2012>
    <rdf:Seq>
     <rdf:li>0, 0</rdf:li>
     <rdf:li>21, 29</rdf:li>
     <rdf:li>51, 61</rdf:li>
     <rdf:li>91, 97</rdf:li>
     <rdf:li>199, 174</rdf:li>
     <rdf:li>255, 219</rdf:li>
    </rdf:Seq>
   </crs:ToneCurvePV2012>
   <crs:ToneCurvePV2012Red>
    <rdf:Seq>
     <rdf:li>0, 0</rdf:li>
     <rdf:li>47, 18</rdf:li>
     <rdf:li>80, 62</rdf:li>
     <rdf:li>117, 122</rdf:li>
     <rdf:li>179, 200</rdf:li>
     <rdf:li>255, 255</rdf:li>
    </rdf:Seq>
   </crs:ToneCurvePV2012Red>
   <crs:ToneCurvePV2012Green>
    <rdf:Seq>
     <rdf:li>0, 0</rdf:li>
     <rdf:li>46, 20</rdf:li>
     <rdf:li>117, 122</rdf:li>
     <rdf:li>179, 200</rdf:li>
     <rdf:li>255, 255</rdf:li>
    </rdf:Seq>
   </crs:ToneCurvePV2012Green>
   <crs:ToneCurvePV2012Blue>
    <rdf:Seq>
     <rdf:li>0, 0</rdf:li>
     <rdf:li>44, 18</rdf:li>
     <rdf:li>80, 63</rdf:li>
     <rdf:li>117, 122</rdf:li>
     <rdf:li>179, 200</rdf:li>
     <rdf:li>255, 255</rdf:li>
    </rdf:Seq>
   </crs:ToneCurvePV2012Blue>
   <crs:Look
    crs:Name=""/>
  </rdf:Description>
 </rdf:RDF>
</x:xmpmeta>
