Settings/Archipelago - Don + Helen/D+H 02 C.xmp
<x:xmpmeta xmlns:x="adobe:ns:meta/" x:xmptk="Adobe XMP Core 5.6-c140 79.160451, 2017/05/06-01:08:21        ">
 <rdf:RDF xmlns:rdf="http://www.w3.org/1999/02/22-rdf-syntax-ns#">
  <rdf:Description rdf:about=""
    xmlns:crs="http://ns.adobe.com/camera-raw-settings/1.0/"
   crs:PresetType="Normal"
   crs:Cluster=""
   crs:UUID="B837F77950C0F41E09AC36F8402EA2E5"
   crs:SupportsAmount="False"
   crs:SupportsColor="True"
   crs:SupportsMonochrome="True"
   crs:SupportsHighDynamicRange="True"
   crs:SupportsNormalDynamicRange="True"
   crs:SupportsSceneReferred="True"
   crs:SupportsOutputReferred="True"
   crs:CameraModelRestriction=""
   crs:Copyright=""
   crs:ContactInfo=""
   crs:Version="10.3"
   crs:ProcessVersion="6.7"
   crs:Saturation="-41"
   crs:ShadowTint="0"
   crs:RedHue="0"
   crs:RedSaturation="0"
   crs:GreenHue="0"
   crs:GreenSaturation="0"
   crs:BlueHue="0"
   crs:BlueSaturation="0"
   crs:Vibrance="+49"
   crs:HueAdjustmentRed="0"
   crs:HueAdjustmentOrange="0"
   crs:HueAdjustmentYellow="+11"
   crs:HueAdjustmentGreen="+24"
   crs:HueAdjustmentAqua="-2"
   crs:HueAdjustmentBlue="-17"
   crs:HueAdjustmentPurple="0"
   crs:HueAdjustmentMagenta="0"
   crs:SaturationAdjustmentRed="0"
   crs:SaturationAdjustmentOrange="0"
   crs:SaturationAdjustmentYellow="0"
   crs:SaturationAdjustmentGreen="-31"
   crs:SaturationAdjustmentAqua="0"
   crs:SaturationAdjustmentBlue="-4"
   crs:SaturationAdjustmentPurple="0"
   crs:SaturationAdjustmentMagenta="0"
   crs:LuminanceAdjustmentRed="+2"
   crs:LuminanceAdjustmentOrange="0"
   crs:LuminanceAdjustmentYellow="+2"
   crs:LuminanceAdjustmentGreen="0"
   crs:LuminanceAdjustmentAqua="-6"
   crs:LuminanceAdjustmentBlue="-2"
   crs:LuminanceAdjustmentPurple="0"
   crs:LuminanceAdjustmentMagenta="0"
   crs:SplitToningShadowHue="8"
   crs:SplitToningShadowSaturation="20"
   crs:SplitToningHighlightHue="192"
   crs:SplitToningHighlightSaturation="20"
   crs:SplitToningBalance="+5"
   crs:ParametricShadows="+43"
   crs:ParametricDarks="-10"
   crs:ParametricLights="+4"
   crs:ParametricHighlights="-30"
   crs:ParametricShadowSplit="11"
   crs:ParametricMidtoneSplit="54"
   crs:ParametricHighlightSplit="90"
   crs:GrainAmount="28"
   crs:GrainSize="39"
   crs:GrainFrequency="46"
   crs:Contrast2012="+15"
   crs:Highlights2012="-59"
   crs:Shadows2012="+51"
   crs:Whites2012="-65"
   crs:Blacks2012="+8"
   crs:Clarity2012="+25"
   crs:ConvertToGrayscale="False"
   crs:ToneCurveName2012="Custom"
   crs:CameraProfile="Adobe Standard"
   crs:HasSettings="True">
   <crs:Name>
    <rdf:Alt>
     <rdf:li xml:lang="x-default">D+H 02 C</rdf:li>
    </rdf:Alt>
   </crs:Name>
   <crs:ShortName>
    <rdf:Alt>
     <rdf:li xml:lang="x-default"/>
    </rdf:Alt>
   </crs:ShortName>
   <crs:SortName>
    <rdf:Alt>
     <rdf:li xml:lang="x-default">D+H 02 C</rdf:li>
    </rdf:Alt>
   </crs:SortName>
   <crs:Group>
    <rdf:Alt>
     <rdf:li xml:lang="x-default">Archipelago - Don + Helen</rdf:li>
    </rdf:Alt>
   </crs:Group>
   <crs:Description>
    <rdf:Alt>
     <rdf:li xml:lang="x-default"/>
    </rdf:Alt>
   </crs:Description>
   <crs:ToneCurvePV2012>
    <rdf:Seq>
     <rdf:li>0, 19</rdf:li>
     <rdf:li>50, 49</rdf:li>
     <rdf:li>96, 100</rdf:li>
     <rdf:li>145, 147</rdf:li>
     <rdf:li>191, 178</rdf:li>
     <rdf:li>229, 200</rdf:li>
     <rdf:li>255, 216</rdf:li>
    </rdf:Seq>
   </crs:ToneCurvePV2012>
   <crs:ToneCurvePV2012Red>
    <rdf:Seq>
     <rdf:li>6, 0</rdf:li>
     <rdf:li>255, 255</rdf:li>
    </rdf:Seq>
   </crs:ToneCurvePV2012Red>
   <crs:ToneCurvePV2012Green>
    <rdf:Seq>
     <rdf:li>0, 0</rdf:li>
     <rdf:li>255, 255</rdf:li>
    </rdf:Seq>
   </crs:ToneCurvePV2012Green>
   <crs:ToneCurvePV2012Blue>
    <rdf:Seq>
     <rdf:li>10, 0</rdf:li>
     <rdf:li>255, 255</rdf:li>
    </rdf:Seq>
   </crs:ToneCurvePV2012Blue>
   <crs:Look
    crs:Name=""/>
  </rdf:Description>
 </rdf:RDF>
</x:xmpmeta>
