Settings/Archipelago - Don + Helen/D+H 03 C.xmp
<x:xmpmeta xmlns:x="adobe:ns:meta/" x:xmptk="Adobe XMP Core 5.6-c140 79.160451, 2017/05/06-01:08:21        ">
 <rdf:RDF xmlns:rdf="http://www.w3.org/1999/02/22-rdf-syntax-ns#">
  <rdf:Description rdf:about=""
    xmlns:crs="http://ns.adobe.com/camera-raw-settings/1.0/"
   crs:PresetType="Normal"
   crs:Cluster=""
   crs:UUID="B743DB41E6CF74D4D8C9C1A7303FE34E"
   crs:SupportsAmount="False"
   crs:SupportsColor="True"
   crs:SupportsMonochrome="True"
   crs:SupportsHighDynamicRange="True"
   crs:SupportsNormalDynamicRange="True"
   crs:SupportsSceneReferred="True"
   crs:SupportsOutputReferred="True"
   crs:CameraModelRestriction=""
   crs:Copyright=""
   crs:ContactInfo=""
   crs:Version="10.3"
   crs:ProcessVersion="6.7"
   crs:Saturation="-31"
   crs:ShadowTint="0"
   crs:RedHue="0"
   crs:RedSaturation="0"
   crs:GreenHue="0"
   crs:GreenSaturation="0"
   crs:BlueHue="0"
   crs:BlueSaturation="0"
   crs:Vibrance="+40"
   crs:HueAdjustmentRed="-15"
   crs:HueAdjustmentOrange="0"
   crs:HueAdjustmentYellow="+74"
   crs:HueAdjustmentGreen="+22"
   crs:HueAdjustmentAqua="-2"
   crs:HueAdjustmentBlue="0"
   crs:HueAdjustmentPurple="+2"
   crs:HueAdjustmentMagenta="-2"
   crs:SaturationAdjustmentRed="+4"
   crs:SaturationAdjustmentOrange="+22"
   crs:SaturationAdjustmentYellow="-30"
   crs:SaturationAdjustmentGreen="-24"
   crs:SaturationAdjustmentAqua="-2"
   crs:SaturationAdjustmentBlue="0"
   crs:SaturationAdjustmentPurple="0"
   crs:SaturationAdjustmentMagenta="0"
   crs:LuminanceAdjustmentRed="+4"
   crs:LuminanceAdjustmentOrange="+2"
   crs:LuminanceAdjustmentYellow="+4"
   crs:LuminanceAdjustmentGreen="+7"
   crs:LuminanceAdjustmentAqua="0"
   crs:LuminanceAdjustmentBlue="0"
   crs:LuminanceAdjustmentPurple="0"
   crs:LuminanceAdjustmentMagenta="0"
   crs:SplitToningShadowHue="0"
   crs:SplitToningShadowSaturation="0"
   crs:SplitToningHighlightHue="0"
   crs:SplitToningHighlightSaturation="0"
   crs:SplitToningBalance="-100"
   crs:ParametricShadows="-100"
   crs:ParametricDarks="+36"
   crs:ParametricLights="-12"
   crs:ParametricHighlights="-14"
   crs:ParametricShadowSplit="20"
   crs:ParametricMidtoneSplit="63"
   crs:ParametricHighlightSplit="75"
   crs:GrainAmount="21"
   crs:GrainSize="32"
   crs:GrainFrequency="55"
   crs:Contrast2012="-12"
   crs:Highlights2012="-42"
   crs:Shadows2012="+47"
   crs:Whites2012="-46"
   crs:Blacks2012="+64"
   crs:Clarity2012="+10"
   crs:ConvertToGrayscale="False"
   crs:ToneCurveName2012="Custom"
   crs:CameraProfile="Adobe Standard"
   crs:HasSettings="True">
   <crs:Name>
    <rdf:Alt>
     <rdf:li xml:lang="x-default">D+H 03 C</rdf:li>
    </rdf:Alt>
   </crs:Name>
   <crs:ShortName>
    <rdf:Alt>
     <rdf:li xml:lang="x-default"/>
    </rdf:Alt>
   </crs:ShortName>
   <crs:SortName>
    <rdf:Alt>
     <rdf:li xml:lang="x-default">D+H 03 C</rdf:li>
    </rdf:Alt>
   </crs:SortName>
   <crs:Group>
    <rdf:Alt>
     <rdf:li xml:lang="x-default">Archipelago - Don + Helen</rdf:li>
    </rdf:Alt>
   </crs:Group>
   <crs:Description>
    <rdf:Alt>
     <rdf:li xml:lang="x-default"/>
    </rdf:Alt>
   </crs:Description>
   <crs:ToneCurvePV2012>
    <rdf:Seq>
     <rdf:li>0, 17</rdf:li>
     <rdf:li>36, 38</rdf:li>
     <rdf:li>85, 74</rdf:li>
     <rdf:li>143, 143</rdf:li>
     <rdf:li>207, 206</rdf:li>
     <rdf:li>255, 238</rdf:li>
    </rdf:Seq>
   </crs:ToneCurvePV2012>
   <crs:ToneCurvePV2012Red>
    <rdf:Seq>
     <rdf:li>0, 0</rdf:li>
     <rdf:li>255, 255</rdf:li>
    </rdf:Seq>
   </crs:ToneCurvePV2012Red>
   <crs:ToneCurvePV2012Green>
    <rdf:Seq>
     <rdf:li>0, 0</rdf:li>
     <rdf:li>255, 255</rdf:li>
    </rdf:Seq>
   </crs:ToneCurvePV2012Green>
   <crs:ToneCurvePV2012Blue>
    <rdf:Seq>
     <rdf:li>0, 0</rdf:li>
     <rdf:li>255, 255</rdf:li>
    </rdf:Seq>
   </crs:ToneCurvePV2012Blue>
   <crs:Look
    crs:Name=""/>
  </rdf:Description>
 </rdf:RDF>
</x:xmpmeta>
