Settings/VSCO Film 00 - Canon/C - Kodak Gold 100 ++.xmp
<x:xmpmeta xmlns:x="adobe:ns:meta/" x:xmptk="Adobe XMP Core 5.6-c140 79.160451, 2017/05/06-01:08:21        ">
 <rdf:RDF xmlns:rdf="http://www.w3.org/1999/02/22-rdf-syntax-ns#">
  <rdf:Description rdf:about=""
    xmlns:crs="http://ns.adobe.com/camera-raw-settings/1.0/"
   crs:PresetType="Normal"
   crs:Cluster=""
   crs:UUID="7AFA854A0E1035716887EF1FFDED56C6"
   crs:SupportsAmount="False"
   crs:SupportsColor="True"
   crs:SupportsMonochrome="True"
   crs:SupportsHighDynamicRange="True"
   crs:SupportsNormalDynamicRange="True"
   crs:SupportsSceneReferred="True"
   crs:SupportsOutputReferred="True"
   crs:CameraModelRestriction=""
   crs:Copyright=""
   crs:ContactInfo=""
   crs:Version="10.3"
   crs:ProcessVersion="6.7"
   crs:Saturation="-8"
   crs:Sharpness="0"
   crs:ShadowTint="-2"
   crs:RedHue="+20"
   crs:RedSaturation="+20"
   crs:GreenHue="+35"
   crs:GreenSaturation="0"
   crs:BlueHue="-5"
   crs:BlueSaturation="+15"
   crs:Vibrance="0"
   crs:HueAdjustmentRed="+5"
   crs:HueAdjustmentOrange="-4"
   crs:HueAdjustmentYellow="0"
   crs:HueAdjustmentGreen="+10"
   crs:HueAdjustmentAqua="+10"
   crs:HueAdjustmentBlue="-5"
   crs:HueAdjustmentPurple="+20"
   crs:HueAdjustmentMagenta="+20"
   crs:SaturationAdjustmentRed="-30"
   crs:SaturationAdjustmentOrange="-15"
   crs:SaturationAdjustmentYellow="-15"
   crs:SaturationAdjustmentGreen="-50"
   crs:SaturationAdjustmentAqua="-50"
   crs:SaturationAdjustmentBlue="-30"
   crs:SaturationAdjustmentPurple="-50"
   crs:SaturationAdjustmentMagenta="-40"
   crs:LuminanceAdjustmentRed="+5"
   crs:LuminanceAdjustmentOrange="0"
   crs:LuminanceAdjustmentYellow="+10"
   crs:LuminanceAdjustmentGreen="-5"
   crs:LuminanceAdjustmentAqua="+10"
   crs:LuminanceAdjustmentBlue="-15"
   crs:LuminanceAdjustmentPurple="+20"
   crs:LuminanceAdjustmentMagenta="+20"
   crs:SplitToningShadowHue="0"
   crs:SplitToningShadowSaturation="0"
   crs:SplitToningHighlightHue="0"
   crs:SplitToningHighlightSaturation="0"
   crs:SplitToningBalance="0"
   crs:ParametricShadows="0"
   crs:ParametricDarks="0"
   crs:ParametricLights="0"
   crs:ParametricHighlights="0"
   crs:ParametricShadowSplit="14"
   crs:ParametricMidtoneSplit="60"
   crs:ParametricHighlightSplit="75"
   crs:SharpenRadius="+1.0"
   crs:SharpenDetail="25"
   crs:SharpenEdgeMasking="0"
   crs:GrainAmount="25"
   crs:GrainSize="40"
   crs:GrainFrequency="45"
   crs:Contrast2012="0"
   crs:Highlights2012="-50"
   crs:Shadows2012="+30"
   crs:Whites2012="-45"
   crs:Blacks2012="+15"
   crs:Clarity2012="-5"
   crs:ConvertToGrayscale="False"
   crs:ToneCurveName2012="Gold 100 ++"
   crs:CameraProfile="Kodak Gold 100 - C"
   crs:HasSettings="True">
   <crs:Name>
    <rdf:Alt>
     <rdf:li xml:lang="x-default">C - Kodak Gold 100 ++</rdf:li>
    </rdf:Alt>
   </crs:Name>
   <crs:ShortName>
    <rdf:Alt>
     <rdf:li xml:lang="x-default"/>
    </rdf:Alt>
   </crs:ShortName>
   <crs:SortName>
    <rdf:Alt>
     <rdf:li xml:lang="x-default">Kodak Gold 100 ++</rdf:li>
    </rdf:Alt>
   </crs:SortName>
   <crs:Group>
    <rdf:Alt>
     <rdf:li xml:lang="x-default">VSCO Film 00 - Canon</rdf:li>
    </rdf:Alt>
   </crs:Group>
   <crs:Description>
    <rdf:Alt>
     <rdf:li xml:lang="x-default"/>
    </rdf:Alt>
   </crs:Description>
   <crs:ToneCurvePV2012>
    <rdf:Seq>
     <rdf:li>0, 39</rdf:li>
     <rdf:li>39, 46</rdf:li>
     <rdf:li>77, 74</rdf:li>
     <rdf:li>130, 130</rdf:li>
     <rdf:li>182, 188</rdf:li>
     <rdf:li>255, 250</rdf:li>
    </rdf:Seq>
   </crs:ToneCurvePV2012>
   <crs:ToneCurvePV2012Red>
    <rdf:Seq>
     <rdf:li>0, 0</rdf:li>
     <rdf:li>31, 7</rdf:li>
     <rdf:li>72, 51</rdf:li>
     <rdf:li>119, 122</rdf:li>
     <rdf:li>179, 197</rdf:li>
     <rdf:li>255, 255</rdf:li>
    </rdf:Seq>
   </crs:ToneCurvePV2012Red>
   <crs:ToneCurvePV2012Green>
    <rdf:Seq>
     <rdf:li>0, 0</rdf:li>
     <rdf:li>29, 7</rdf:li>
     <rdf:li>120, 124</rdf:li>
     <rdf:li>181, 198</rdf:li>
     <rdf:li>255, 255</rdf:li>
    </rdf:Seq>
   </crs:ToneCurvePV2012Green>
   <crs:ToneCurvePV2012Blue>
    <rdf:Seq>
     <rdf:li>0, 0</rdf:li>
     <rdf:li>20, 12</rdf:li>
     <rdf:li>80, 70</rdf:li>
     <rdf:li>119, 122</rdf:li>
     <rdf:li>183, 197</rdf:li>
     <rdf:li>255, 255</rdf:li>
    </rdf:Seq>
   </crs:ToneCurvePV2012Blue>
   <crs:Look
    crs:Name=""/>
  </rdf:Description>
 </rdf:RDF>
</x:xmpmeta>
