Settings/Heck Yeah Bright Pack/Heck Yeah Bright 5.xmp
<x:xmpmeta xmlns:x="adobe:ns:meta/" x:xmptk="Adobe XMP Core 5.6-c140 79.160451, 2017/05/06-01:08:21        ">
 <rdf:RDF xmlns:rdf="http://www.w3.org/1999/02/22-rdf-syntax-ns#">
  <rdf:Description rdf:about=""
    xmlns:crs="http://ns.adobe.com/camera-raw-settings/1.0/"
   crs:PresetType="Normal"
   crs:Cluster=""
   crs:UUID="158977C426716943544EE1541477A386"
   crs:SupportsAmount="False"
   crs:SupportsColor="True"
   crs:SupportsMonochrome="True"
   crs:SupportsHighDynamicRange="True"
   crs:SupportsNormalDynamicRange="True"
   crs:SupportsSceneReferred="True"
   crs:SupportsOutputReferred="True"
   crs:CameraModelRestriction=""
   crs:Copyright=""
   crs:ContactInfo=""
   crs:Version="10.3"
   crs:ProcessVersion="6.7"
   crs:Saturation="-10"
   crs:Sharpness="25"
   crs:VignetteAmount="0"
   crs:ShadowTint="0"
   crs:RedHue="0"
   crs:RedSaturation="0"
   crs:GreenHue="0"
   crs:GreenSaturation="0"
   crs:BlueHue="0"
   crs:BlueSaturation="0"
   crs:Vibrance="-6"
   crs:HueAdjustmentRed="0"
   crs:HueAdjustmentOrange="+7"
   crs:HueAdjustmentYellow="+3"
   crs:HueAdjustmentGreen="-21"
   crs:HueAdjustmentAqua="-8"
   crs:HueAdjustmentBlue="-9"
   crs:HueAdjustmentPurple="+6"
   crs:HueAdjustmentMagenta="+2"
   crs:SaturationAdjustmentRed="-7"
   crs:SaturationAdjustmentOrange="-10"
   crs:SaturationAdjustmentYellow="-15"
   crs:SaturationAdjustmentGreen="-63"
   crs:SaturationAdjustmentAqua="-71"
   crs:SaturationAdjustmentBlue="-30"
   crs:SaturationAdjustmentPurple="0"
   crs:SaturationAdjustmentMagenta="0"
   crs:LuminanceAdjustmentRed="0"
   crs:LuminanceAdjustmentOrange="+8"
   crs:LuminanceAdjustmentYellow="+9"
   crs:LuminanceAdjustmentGreen="0"
   crs:LuminanceAdjustmentAqua="-26"
   crs:LuminanceAdjustmentBlue="-28"
   crs:LuminanceAdjustmentPurple="0"
   crs:LuminanceAdjustmentMagenta="0"
   crs:SplitToningShadowHue="65"
   crs:SplitToningShadowSaturation="12"
   crs:SplitToningHighlightHue="235"
   crs:SplitToningHighlightSaturation="0"
   crs:SplitToningBalance="0"
   crs:ParametricShadows="0"
   crs:ParametricDarks="0"
   crs:ParametricLights="0"
   crs:ParametricHighlights="0"
   crs:ParametricShadowSplit="25"
   crs:ParametricMidtoneSplit="50"
   crs:ParametricHighlightSplit="75"
   crs:SharpenRadius="+1.0"
   crs:SharpenDetail="25"
   crs:SharpenEdgeMasking="0"
   crs:LensProfileEnable="1"
   crs:LensManualDistortionAmount="0"
   crs:AutoLateralCA="0"
   crs:Contrast2012="+35"
   crs:Highlights2012="+27"
   crs:Shadows2012="-12"
   crs:Whites2012="+29"
   crs:Blacks2012="-12"
   crs:Clarity2012="0"
   crs:DefringePurpleAmount="0"
   crs:DefringePurpleHueLo="30"
   crs:DefringePurpleHueHi="70"
   crs:DefringeGreenAmount="0"
   crs:DefringeGreenHueLo="40"
   crs:DefringeGreenHueHi="60"
   crs:ConvertToGrayscale="False"
   crs:ToneCurveName2012="Custom"
   crs:CameraProfile="Adobe Standard"
   crs:LensProfileSetup="Auto"
   crs:HasSettings="True">
   <crs:Name>
    <rdf:Alt>
     <rdf:li xml:lang="x-default">Heck Yeah Bright 5</rdf:li>
    </rdf:Alt>
   </crs:Name>
   <crs:ShortName>
    <rdf:Alt>
     <rdf:li xml:lang="x-default"/>
    </rdf:Alt>
   </crs:ShortName>
   <crs:SortName>
    <rdf:Alt>
     <rdf:li xml:lang="x-default">Heck Yeah Bright 5</rdf:li>
    </rdf:Alt>
   </crs:SortName>
   <crs:Group>
    <rdf:Alt>
     <rdf:li xml:lang="x-default">Heck Yeah Bright Pack</rdf:li>
    </rdf:Alt>
   </crs:Group>
   <crs:Description>
    <rdf:Alt>
     <rdf:li xml:lang="x-default"/>
    </rdf:Alt>
   </crs:Description>
   <crs:ToneCurvePV2012>
    <rdf:Seq>
     <rdf:li>0, 6</rdf:li>
     <rdf:li>34, 22</rdf:li>
     <rdf:li>65, 50</rdf:li>
     <rdf:li>131, 127</rdf:li>
     <rdf:li>195, 192</rdf:li>
     <rdf:li>255, 247</rdf:li>
    </rdf:Seq>
   </crs:ToneCurvePV2012>
   <crs:ToneCurvePV2012Red>
    <rdf:Seq>
     <rdf:li>0, 9</rdf:li>
     <rdf:li>46, 50</rdf:li>
     <rdf:li>205, 200</rdf:li>
     <rdf:li>255, 246</rdf:li>
    </rdf:Seq>
   </crs:ToneCurvePV2012Red>
   <crs:ToneCurvePV2012Green>
    <rdf:Seq>
     <rdf:li>0, 4</rdf:li>
     <rdf:li>255, 251</rdf:li>
    </rdf:Seq>
   </crs:ToneCurvePV2012Green>
   <crs:ToneCurvePV2012Blue>
    <rdf:Seq>
     <rdf:li>4, 0</rdf:li>
     <rdf:li>48, 44</rdf:li>
     <rdf:li>126, 128</rdf:li>
     <rdf:li>209, 206</rdf:li>
     <rdf:li>255, 250</rdf:li>
    </rdf:Seq>
   </crs:ToneCurvePV2012Blue>
   <crs:Look
    crs:Name=""/>
  </rdf:Description>
 </rdf:RDF>
</x:xmpmeta>
