Settings/VSCO Film 06 Push & Pull - Standard/Portra 800+1 ++ Green.xmp
<x:xmpmeta xmlns:x="adobe:ns:meta/" x:xmptk="Adobe XMP Core 5.6-c140 79.160451, 2017/05/06-01:08:21        ">
 <rdf:RDF xmlns:rdf="http://www.w3.org/1999/02/22-rdf-syntax-ns#">
  <rdf:Description rdf:about=""
    xmlns:crs="http://ns.adobe.com/camera-raw-settings/1.0/"
   crs:PresetType="Normal"
   crs:Cluster=""
   crs:UUID="60F16907DB3F8926767AC65733C7F3CB"
   crs:SupportsAmount="False"
   crs:SupportsColor="True"
   crs:SupportsMonochrome="True"
   crs:SupportsHighDynamicRange="True"
   crs:SupportsNormalDynamicRange="True"
   crs:SupportsSceneReferred="True"
   crs:SupportsOutputReferred="True"
   crs:CameraModelRestriction=""
   crs:Copyright=""
   crs:ContactInfo=""
   crs:Version="10.3"
   crs:ProcessVersion="6.7"
   crs:Saturation="0"
   crs:Sharpness="0"
   crs:ShadowTint="0"
   crs:RedHue="+35"
   crs:RedSaturation="0"
   crs:GreenHue="+55"
   crs:GreenSaturation="-25"
   crs:BlueHue="-12"
   crs:BlueSaturation="-5"
   crs:Vibrance="0"
   crs:HueAdjustmentRed="+5"
   crs:HueAdjustmentOrange="+12"
   crs:HueAdjustmentYellow="+15"
   crs:HueAdjustmentGreen="+20"
   crs:HueAdjustmentAqua="+5"
   crs:HueAdjustmentBlue="0"
   crs:HueAdjustmentPurple="+5"
   crs:HueAdjustmentMagenta="0"
   crs:SaturationAdjustmentRed="-25"
   crs:SaturationAdjustmentOrange="-8"
   crs:SaturationAdjustmentYellow="-10"
   crs:SaturationAdjustmentGreen="-25"
   crs:SaturationAdjustmentAqua="-20"
   crs:SaturationAdjustmentBlue="0"
   crs:SaturationAdjustmentPurple="-10"
   crs:SaturationAdjustmentMagenta="-25"
   crs:LuminanceAdjustmentRed="-20"
   crs:LuminanceAdjustmentOrange="-10"
   crs:LuminanceAdjustmentYellow="-14"
   crs:LuminanceAdjustmentGreen="-15"
   crs:LuminanceAdjustmentAqua="-10"
   crs:LuminanceAdjustmentBlue="-5"
   crs:LuminanceAdjustmentPurple="+10"
   crs:LuminanceAdjustmentMagenta="-5"
   crs:SplitToningShadowHue="0"
   crs:SplitToningShadowSaturation="0"
   crs:SplitToningHighlightHue="0"
   crs:SplitToningHighlightSaturation="0"
   crs:SplitToningBalance="0"
   crs:ParametricShadows="0"
   crs:ParametricDarks="0"
   crs:ParametricLights="0"
   crs:ParametricHighlights="0"
   crs:ParametricShadowSplit="25"
   crs:ParametricMidtoneSplit="50"
   crs:ParametricHighlightSplit="75"
   crs:SharpenRadius="+1.0"
   crs:SharpenDetail="25"
   crs:SharpenEdgeMasking="0"
   crs:GrainAmount="20"
   crs:GrainSize="25"
   crs:GrainFrequency="100"
   crs:Contrast2012="0"
   crs:Highlights2012="-20"
   crs:Shadows2012="+25"
   crs:Whites2012="-15"
   crs:Blacks2012="+20"
   crs:Clarity2012="0"
   crs:ConvertToGrayscale="False"
   crs:ToneCurveName2012="Portra 800+1 ++ Green"
   crs:CameraProfile="Adobe Standard"
   crs:HasSettings="True">
   <crs:Name>
    <rdf:Alt>
     <rdf:li xml:lang="x-default">S - Portra 800⁺¹ ++ Green</rdf:li>
    </rdf:Alt>
   </crs:Name>
   <crs:ShortName>
    <rdf:Alt>
     <rdf:li xml:lang="x-default"/>
    </rdf:Alt>
   </crs:ShortName>
   <crs:SortName>
    <rdf:Alt>
     <rdf:li xml:lang="x-default">S - Portra 800⁺¹ ++ Green</rdf:li>
    </rdf:Alt>
   </crs:SortName>
   <crs:Group>
    <rdf:Alt>
     <rdf:li xml:lang="x-default">VSCO Film 06 Push &amp; Pull - Standard</rdf:li>
    </rdf:Alt>
   </crs:Group>
   <crs:Description>
    <rdf:Alt>
     <rdf:li xml:lang="x-default"/>
    </rdf:Alt>
   </crs:Description>
   <crs:ToneCurvePV2012>
    <rdf:Seq>
     <rdf:li>0, 14</rdf:li>
     <rdf:li>44, 51</rdf:li>
     <rdf:li>122, 126</rdf:li>
     <rdf:li>255, 250</rdf:li>
    </rdf:Seq>
   </crs:ToneCurvePV2012>
   <crs:ToneCurvePV2012Red>
    <rdf:Seq>
     <rdf:li>0, 0</rdf:li>
     <rdf:li>41, 11</rdf:li>
     <rdf:li>79, 47</rdf:li>
     <rdf:li>120, 119</rdf:li>
     <rdf:li>170, 190</rdf:li>
     <rdf:li>255, 255</rdf:li>
    </rdf:Seq>
   </crs:ToneCurvePV2012Red>
   <crs:ToneCurvePV2012Green>
    <rdf:Seq>
     <rdf:li>0, 6</rdf:li>
     <rdf:li>73, 50</rdf:li>
     <rdf:li>119, 119</rdf:li>
     <rdf:li>169, 193</rdf:li>
     <rdf:li>221, 242</rdf:li>
     <rdf:li>255, 255</rdf:li>
    </rdf:Seq>
   </crs:ToneCurvePV2012Green>
   <crs:ToneCurvePV2012Blue>
    <rdf:Seq>
     <rdf:li>0, 0</rdf:li>
     <rdf:li>36, 12</rdf:li>
     <rdf:li>73, 45</rdf:li>
     <rdf:li>116, 120</rdf:li>
     <rdf:li>161, 196</rdf:li>
     <rdf:li>216, 242</rdf:li>
     <rdf:li>255, 255</rdf:li>
    </rdf:Seq>
   </crs:ToneCurvePV2012Blue>
   <crs:Look
    crs:Name=""/>
  </rdf:Description>
 </rdf:RDF>
</x:xmpmeta>
